X: 567
T: Dong bing
%%abc-version 2.0
%%abcx-abcm2ps-target-version 5.9.1 (29 Sep 2008)
%%abc-creator hum2abc beta
%%abcx-conversion-date 2013/10/02 07:52:30
%%abc-edited-by Helmut Schaffrath
%%humdrum-veritas 394602294
%%humdrum-veritas-data 1027226578
%%continueall 1
%%barnumbers 0
L: 1/8
M: 2/4
K: F
A c d c/ d/ [I:setbarnb 1]| 
f dc2 | 
A> c d f | 
c2z2 | 
A c d c/ d/ | 
f dc2 | 
c> A G c | 
F> AC2 | 
c> A G c | 
F> AC2 | 
BG2D | 
C4 | 
c A/ A/ G c | 
F4 | 
c A/ A/ G A | 
c Ac2 | 
BG2D | 
C4 |]  



